img/svg/Umbrela.svg

<svg width="54" height="54" viewBox="0 0 54 54" fill="none" xmlns="http://www.w3.org/2000/svg">
<path fill-rule="evenodd" clip-rule="evenodd" d="M0.751968 26.4948C4.07034 26.6717 3.90202 24.1863 8.10095 24.205C11.4372 24.22 12.3393 26.097 14.4054 26.8601C17.9069 25.2513 18.7898 22.2299 25.6175 25.9222C25.8692 30.8614 26.273 46.7924 25.2817 50.6693C19.003 53.6873 21.0785 47.4588 18.1179 48.1106C17.1085 49.0186 17.6693 46.9047 17.3385 49.3517C16.782 53.4683 28.3794 57.6369 28.3551 47.0543C28.3391 40.1236 28.096 32.8099 28.4023 25.9222C35.2578 22.2148 36.2461 25.3123 39.6144 26.8601C41.7502 26.0716 42.7248 24.0564 46.3282 24.2124C50.1805 24.379 50.0566 26.6594 53.2678 26.4947C54.8053 20.4538 49.5385 13.2625 46.431 10.2624C42.4785 6.44648 35.1948 3.70752 28.5282 3.26875C28.3318 2.31696 28.4266 0.963442 27.4602 0.623488C25.2173 0.595378 25.8713 1.43135 25.5002 3.26875C21.2041 3.54911 18.3419 4.25171 14.9115 5.75632C6.08763 9.6267 -1.21656 18.7421 0.75214 26.4947L0.751968 26.4948Z" fill="white"/>
</svg>

<svg width="54" height="54" fill="none" xmlns="http://www.w3.org/2000/svg"><path fill-rule="evenodd" clip-rule="evenodd" d="M.752 26.495c3.318.177 3.15-2.309 7.349-2.29 3.336.015 4.238 1.892 6.304 2.655 3.502-1.609 4.385-4.63 11.213-.938.251 4.94.655 20.87-.336 24.747-6.279 3.018-4.204-3.21-7.164-2.558-1.01.908-.449-1.206-.78 1.24-.556 4.117 11.041 8.286 11.017-2.297-.016-6.93-.259-14.244.047-21.132 6.856-3.707 7.844-.61 11.212.938 2.136-.788 3.11-2.804 6.714-2.648 3.852.167 3.729 2.447 6.94 2.283 1.537-6.041-3.73-13.233-6.837-16.233-3.953-3.816-11.236-6.554-17.903-6.993-.196-.952-.101-2.306-1.068-2.646-2.243-.028-1.589.808-1.96 2.646-4.296.28-7.158.983-10.588 2.487C6.088 9.626-1.218 18.742.752 26.495z" fill="#fff"/></svg>
